X:23
T:Perth-Shire Volunteer's Strathspey
S:Petrie's Second Collection of Strathspey Reels and Country Dances &c.
Z:Steve Wyrick <sjwyrick'at'gmail'dot'com>, 6/5/04
N:Petrie's Second Collection, page 8
L:1/8
M:C
R:Strathspey
K:A
A|EA c/d/e     c2 Ac|d>B d/c/B/A/ G(BBc)|EA c/d/e    c2 Ac|d<Be>d      cAA  :|
g|a>e a/g/f/e/ a2 ec|dB d/c/B/A/  G(BBg)|ae a/g/f/e/ a2 ec|dB d/c/B/A/ E(AAd)|
  ceGe         FdEc |dB d/c/B/A/  G(BBd)|cedf        eagb |a/g/f/e/ ae cAA  |]
